gama.ui.shared/icons_svg/dark/views/tabs/view.navigator.svg

<?xml version="1.0" encoding="UTF-8" standalone="no"?>
<!DOCTYPE svg PUBLIC "-//W3C//DTD SVG 1.1//EN" "http://www.w3.org/Graphics/SVG/1.1/DTD/svg11.dtd">
<svg xmlns="http://www.w3.org/2000/svg" xmlns:dc="http://purl.org/dc/elements/1.1/" version="1.1" xmlns:xl="http://www.w3.org/1999/xlink" viewBox="-639.35776 -2973.7685 24.75 24.75" width="24.75" height="24.75">
  <defs/>
  <g id="SOURCES" fill="none" stroke="none" stroke-dasharray="none" fill-opacity="1" stroke-opacity="1">
    <title>SOURCES</title>
    <g id="SOURCES_Dark">
      <title>Dark</title>
      <g id="Group_12693">
        <g id="Graphic_11035">
          <path d="M -632.23276 -2966.2935 C -632.81266 -2966.2935 -633.28276 -2965.8234 -633.28276 -2965.2435 L -633.28276 -2957.5435 C -633.28276 -2956.9636 -632.81266 -2956.4935 -632.23276 -2956.4935 L -621.73276 -2956.4935 C -621.15286 -2956.4935 -620.68276 -2956.9636 -620.68276 -2957.5435 L -620.68276 -2963.1435 C -620.68276 -2963.7234 -621.15286 -2964.1935 -621.73276 -2964.1935 L -625.58276 -2964.1935 C -626.35596 -2964.1935 -626.98276 -2964.8203 -626.98276 -2965.5935 C -626.98276 -2965.98 -627.29616 -2966.2935 -627.68276 -2966.2935 Z M -632.23276 -2966.9935 L -627.68276 -2966.9935 C -626.90956 -2966.9935 -626.28276 -2966.3667 -626.28276 -2965.5935 C -626.28276 -2965.207 -625.96936 -2964.8935 -625.58276 -2964.8935 L -621.73276 -2964.8935 C -620.76626 -2964.8935 -619.98276 -2964.11 -619.98276 -2963.1435 L -619.98276 -2957.5435 C -619.98276 -2956.577 -620.76626 -2955.7935 -621.73276 -2955.7935 L -632.23276 -2955.7935 C -633.19926 -2955.7935 -633.98276 -2956.577 -633.98276 -2957.5435 L -633.98276 -2965.2435 C -633.98276 -2966.21 -633.19926 -2966.9935 -632.23276 -2966.9935 Z" fill="#c0e0ff"/>
        </g>
        <g id="Graphic_12682"/>
      </g>
    </g>
  </g>
</svg>

<svg height="24.75" viewBox="-639.358 -2973.769 24.75 24.75" width="24.75" xmlns="http://www.w3.org/2000/svg"><path d="m-632.23276-2966.2935c-.5799 0-1.05.4701-1.05 1.05v7.7c0 .5799.4701 1.05 1.05 1.05h10.5c.5799 0 1.05-.4701 1.05-1.05v-5.6c0-.5799-.4701-1.05-1.05-1.05h-3.85c-.7732 0-1.4-.6268-1.4-1.4 0-.3865-.3134-.7-.7-.7zm0-.7h4.55c.7732 0 1.4.6268 1.4 1.4 0 .3865.3134.7.7.7h3.85c.9665 0 1.75.7835 1.75 1.75v5.6c0 .9665-.7835 1.75-1.75 1.75h-10.5c-.9665 0-1.75-.7835-1.75-1.75v-7.7c0-.9665.7835-1.75 1.75-1.75z" fill="#c0e0ff"/></svg>
